X: 22068
T: Knocknaboul, The
R: polka
M: 2/4
K: Gmajor
|:G2 BA|GB B2|FA A2|FA D2|
GB B>A|GB dg|fd cA|G2 G2:|
|:g2 gd|ga ag|fd de|fg af|
g2 gd|ga ag|fd cA|G2 G2:|
|:B2 c2|dc AG|FD D>E|FG Ac|
B2 c2|dc A|fd cA|G2 G2:|

